svgs/sharp-light/arrow-down-big-small.svg

<svg xmlns="http://www.w3.org/2000/svg" viewBox="0 0 576 512"><!--! Font Awesome Pro 6.6.0 by @fontawesome - https://fontawesome.com License - https://fontawesome.com/license (Commercial License) Copyright 2024 Fonticons, Inc. --><path d="M160 478.6l11.3-11.3 88-88L270.6 368 248 345.4l-11.3 11.3L176 417.4 176 48l0-16-32 0 0 16 0 369.4L83.3 356.7 72 345.4 49.4 368l11.3 11.3 88 88L160 478.6zM352 320l-32 0 0 32 0 96 0 32 32 0 96 0 32 0 0-32 0-96 0-32-32 0-96 0zm96 32l0 96-96 0 0-96 96 0zM320 32l0 32 0 160 0 32 32 0 160 0 32 0 0-32 0-160 0-32-32 0L352 32l-32 0zM512 224l-160 0 0-160 160 0 0 160z"/></svg>

<svg xmlns="http://www.w3.org/2000/svg" viewBox="0 0 576 512"><!--! Font Awesome Pro 6.5.2 by @fontawesome - https://fontawesome.com License - https://fontawesome.com/license (Commercial License) Copyright 2024 Fonticons, Inc. --><path d="M160 478.6l11.3-11.3 88-88L270.6 368 248 345.4l-11.3 11.3L176 417.4V48 32H144V48 417.4L83.3 356.7 72 345.4 49.4 368l11.3 11.3 88 88L160 478.6zM352 320H320v32 96 32h32 96 32V448 352 320H448 352zm96 32v96H352V352h96zM320 32V64 224v32h32H512h32V224 64 32H512 352 320zM512 224H352V64H512V224z"/></svg>
